X:1
T:Title
%%score { ( 1 3 ) | ( 2 4 ) }
L:1/8
M:4/4
K:A
V:1 treble nm="Grand Piano"
V:3 treble 
V:2 bass 
V:4 bass 
V:1
 z4 z2[Q:1/4=100] [Ec]>[DB] | [CA]2 [DA]2 [CA]2 [EA]>B | c2 c2 c2 B>A | B2 B2 [EA]2 [EB]2 | %4
 [Ec]6 [Ec]>[DB] | [CA]2 [DA]2 [CA]2 [EA]>B | c2 c2 c2 B>A | B2 B2 E2 B2 |[M:3/4] [CA]6 | %9
[M:1/4] [CA]>[EG] |[M:4/4] [DF]2 [FA]2 [FA]2 [DF]>[DA] | z2 E4 z2 | [A,DF]2 [DFA]2 [Fd]2 [Fd]2 | %13
 c->[Ec-] [Ec-]>[Ec-] [Ec]2 c>d | e2 e2 c2 c>c | [FB]2 c2 d2 F>[FB] | A2 A2 A2 G2 |[M:3/4] [CA]6 |] %18
V:2
 z4 z2 [A,,A,]>[A,,A,] | [A,,A,]2 [A,,F,]2 [A,,E,]2 [C,A,]>[E,G,E] | %2
 [A,E]2 [A,E]2 [A,E]2 [G,B,E]>[F,B,^D] | [E,G,E]2 [E,G,E]2 [C,A,]2 [E,G,]2 | %4
 [A,,A,]6 [A,,A,]>[A,,A,] | [A,,A,]2 [A,,F,]2 [A,,E,]2 [C,A,]>[E,G,E] | %6
 [A,E]2 [A,E]2 [A,E]2 [G,B,E]>[F,B,^D] | [E,G,D]2 [E,G,D]2 [E,G,D]2 [E,G,D]2 |[M:3/4] [A,,A,]6 | %9
[M:1/4] [A,,A,]>[C,A,] |[M:4/4] [D,A,]2 [D,D]2 [D,D]2 [D,A,]>[D,F,] | z2 G,>F, E,2 A,,>C, | %12
 D,2 D,2 [D,A,]2 [D,A,]2 | [A,,A,]>[A,,A,] [C,A,]>[E,A,] A,2[K:treble] [A,E]>[A,B,E] | %14
 [A,CA]2 [A,CA]2 [A,EA]2 [A,EA]>[A,EA] | [D,D]2 [F,^A,F]2 [B,F]2 [D,D]>[D,D] | %16
 [E,CE]2 [E,CE]2 [E,B,D]2 [E,B,D]2 |[M:3/4] [A,,A,]6 |] %18
V:3
 x8 | x8 | x8 | x8 | x8 | x8 | x8 | x8 |[M:3/4] x6 |[M:1/4] x2 |[M:4/4] x8 | %11
 [A,CE]2 z z/ D/ C2 [A,CA]>[A,EG] | x8 | E2 z2 z4 | x8 | x8 | x8 |[M:3/4] x6 |] %18
V:4
 x8 | x8 | x8 | x8 | x8 | x8 | x8 | x8 |[M:3/4] x6 |[M:1/4] x2 |[M:4/4] x8 | A,,6 z2 | x8 | %13
 x6[K:treble] x2 | x8 | x8 | x8 |[M:3/4] x6 |] %18

